X: 29800
T: O'Carolan's Fancy
R: jig
M: 6/8
K: Dmajor
|:A/G/|FDF ABc|dAd fed|B/c/dB AdF|EFD EAG|
FDF AFA|Bcd ecA|GAB AdF|EDC D2:|
|:(3B/c/d/|dec def|gag fed|e/f/ge age|ded cBA|
GBd FAd|Eed cBA|Ggf edc|Adc d2:|

